images/hero/paint.svg

<svg width="62" height="63" viewBox="0 0 62 63" fill="none" xmlns="http://www.w3.org/2000/svg">
<rect opacity="0.58" width="62" height="62" fill="white"/>
<path d="M39.6764 62.0929C42.9902 62.1042 46.2718 61.4431 49.3228 60.1497C52.3738 58.8563 55.1307 56.9575 57.4268 54.5681C57.7571 54.2302 57.9933 53.8118 58.112 53.3544C58.2306 52.8969 58.2277 52.4165 58.1033 51.9605C57.986 51.5129 57.7536 51.1037 57.4293 50.7736C57.105 50.4434 56.7 50.2038 56.2545 50.0785C54.0962 49.4598 52.203 48.1449 50.8694 46.3385C49.5359 44.5322 48.8369 42.3357 48.8812 40.0909C48.9902 34.5792 53.5448 30.125 59.0519 30.125H59.1287L59.2295 30.1262C59.6997 30.1357 60.1642 30.0228 60.5776 29.7986C60.991 29.5744 61.339 29.2466 61.5874 28.8473C61.8355 28.4548 61.9768 28.0043 61.9974 27.5404C62.018 27.0766 61.9171 26.6153 61.7049 26.2023C59.6392 22.1351 56.4876 18.7194 52.5993 16.3338C48.7111 13.9483 44.2381 12.6862 39.6764 12.6874C33.1248 12.6874 26.8416 15.29 22.2089 19.9227C17.5762 24.5553 14.9736 30.8386 14.9736 37.3902C14.9736 43.9417 17.5762 50.225 22.2089 54.8576C26.8416 59.4903 33.1248 62.0929 39.6764 62.0929ZM23.5673 21.2728C26.1129 18.7329 29.2235 16.8315 32.6448 15.7241C36.0661 14.6166 39.7008 14.3346 43.252 14.901C46.8031 15.4675 50.1698 16.8663 53.0767 18.9831C55.9837 21.0999 58.3484 23.8747 59.9776 27.0805C60.0373 27.1959 60.0657 27.3249 60.0598 27.4547C60.0539 27.5845 60.014 27.7104 59.9441 27.8199C59.8727 27.9358 59.7722 28.0308 59.6524 28.0955C59.5327 28.1602 59.3981 28.1922 59.2621 28.1884L59.144 28.1869H59.0525C52.4964 28.1869 47.0736 33.4907 46.9443 40.0525C46.8919 42.7249 47.7243 45.3397 49.3121 47.4899C50.8999 49.6401 53.154 51.2052 55.7235 51.9414C55.8465 51.976 55.9583 52.0423 56.0475 52.1337C56.1368 52.2251 56.2005 52.3383 56.2321 52.4621C56.2682 52.5948 56.2689 52.7345 56.2343 52.8676C56.1997 53.0006 56.1309 53.1223 56.0347 53.2205C53.9418 55.3734 51.4439 57.0912 48.6847 58.275C45.9254 59.4589 42.9593 60.0856 39.957 60.1189C36.9547 60.1522 33.9754 59.5915 31.1906 58.4691C28.4058 57.3468 25.8703 55.6848 23.7302 53.5789C21.59 51.473 19.8874 48.9648 18.7202 46.1984C17.5531 43.432 16.9444 40.4622 16.9293 37.4597C16.9141 34.4573 17.4928 31.4815 18.632 28.7035C19.7712 25.9255 21.4485 23.4002 23.5673 21.2728Z" fill="#CB8734"/>
<path d="M2.90621 16.2163V21.3122C2.9065 21.388 2.91568 21.4636 2.93358 21.5372C0.9048 32.8924 0.272699 40.28 1.82655 53.3945C2.13437 55.9927 2.53082 58.6207 3.00514 61.2049C3.04597 61.4279 3.16367 61.6294 3.33778 61.7745C3.51188 61.9197 3.73136 61.9991 3.95801 61.9991H9.48671C9.71329 61.9991 9.9327 61.9197 10.1068 61.7746C10.2808 61.6296 10.3986 61.4281 10.4395 61.2053C10.9138 58.6208 11.3102 55.9929 11.6181 53.3948C13.2436 39.6741 12.6048 32.073 10.6561 21.2267V16.2163C11.5528 15.5924 12.2854 14.7609 12.7914 13.7928C13.2974 12.8247 13.5619 11.7485 13.5623 10.6561C13.5623 10.5211 13.537 7.32344 11.3411 5.12743C9.86173 3.64817 10.6 1.29463 10.6065 1.27513C10.6579 1.12088 10.6697 0.956158 10.6407 0.796156C10.6117 0.636154 10.5429 0.486017 10.4407 0.359584C10.3384 0.23315 10.206 0.134488 10.0556 0.0726898C9.90521 0.0108918 9.74168 -0.0120534 9.58007 0.00596896C4.64352 0.555727 2.29324 3.43905 1.19106 5.76026C0.468847 7.29552 0.0637474 8.96068 0 10.6561C0.000404052 11.7485 0.264888 12.8247 0.770915 13.7928C1.27694 14.7609 2.00951 15.5924 2.90621 16.2163ZM9.69414 53.1666C9.42265 55.4588 9.08093 57.7744 8.67697 60.0617H4.76788C4.36379 57.7742 4.02207 55.4587 3.7507 53.1666C2.24432 40.4519 2.83258 33.2141 4.76921 22.281H8.87605C10.6902 32.5607 11.255 39.9916 9.69414 53.1666ZM8.71863 20.3435H4.84368V17.1538C6.10767 17.5318 7.45464 17.5318 8.71863 17.1538V20.3435ZM2.9412 6.5912C4.05743 4.24019 5.92249 2.75125 8.49545 2.15184C8.40524 3.37208 8.58833 5.1146 9.97108 6.49735C11.578 8.10436 11.6241 10.5978 11.6248 10.6583C11.6227 11.872 11.1656 13.0408 10.3437 13.9338C9.52175 14.8268 8.39482 15.3791 7.18548 15.4816C6.26215 14.4479 5.84245 13.4771 5.94053 12.5922C6.08257 11.3092 7.29083 10.5114 7.30306 10.5036L6.26421 8.86809C6.1832 8.91919 4.27661 10.1454 4.01783 12.3519C3.92485 13.233 4.08445 14.1224 4.47798 14.9163C3.71037 14.5011 3.06913 13.8863 2.62197 13.1369C2.1748 12.3874 1.93831 11.5311 1.93747 10.6584C2.00019 9.24971 2.34133 7.86736 2.9412 6.5912Z" fill="#CB8734"/>
<path d="M45.5306 27.2185C46.297 27.2185 47.0462 26.9912 47.6834 26.5654C48.3206 26.1396 48.8173 25.5344 49.1106 24.8264C49.4039 24.1183 49.4806 23.3392 49.3311 22.5875C49.1816 21.8359 48.8125 21.1454 48.2706 20.6035C47.7287 20.0616 47.0382 19.6925 46.2865 19.543C45.5349 19.3935 44.7558 19.4702 44.0477 19.7635C43.3397 20.0568 42.7345 20.5535 42.3087 21.1907C41.8829 21.8279 41.6556 22.5771 41.6556 23.3435C41.6568 24.3709 42.0654 25.3558 42.7919 26.0822C43.5183 26.8087 44.5032 27.2173 45.5306 27.2185ZM45.5306 21.406C45.9138 21.406 46.2884 21.5197 46.607 21.7326C46.9256 21.9455 47.1739 22.248 47.3206 22.6021C47.4672 22.9561 47.5056 23.3457 47.4308 23.7215C47.3561 24.0973 47.1715 24.4426 46.9006 24.7135C46.6296 24.9845 46.2844 25.169 45.9086 25.2438C45.5327 25.3185 45.1432 25.2801 44.7891 25.1335C44.4351 24.9869 44.1325 24.7385 43.9196 24.4199C43.7067 24.1013 43.5931 23.7267 43.5931 23.3435C43.5937 22.8298 43.798 22.3374 44.1612 21.9742C44.5244 21.6109 45.0169 21.4066 45.5306 21.406Z" fill="#CB8734"/>
<path d="M32.937 28.1872C33.7034 28.1872 34.4526 27.9599 35.0898 27.5342C35.7271 27.1084 36.2237 26.5032 36.517 25.7951C36.8103 25.0871 36.887 24.308 36.7375 23.5563C36.588 22.8046 36.2189 22.1142 35.677 21.5723C35.1351 21.0303 34.4446 20.6613 33.693 20.5118C32.9413 20.3623 32.1622 20.439 31.4541 20.7323C30.7461 21.0256 30.1409 21.5222 29.7151 22.1595C29.2893 22.7967 29.0621 23.5459 29.0621 24.3123C29.0632 25.3396 29.4718 26.3245 30.1983 27.051C30.9247 27.7774 31.9097 28.1861 32.937 28.1872ZM32.937 22.3748C33.3202 22.3748 33.6948 22.4884 34.0134 22.7013C34.332 22.9142 34.5804 23.2168 34.727 23.5708C34.8737 23.9249 34.912 24.3144 34.8373 24.6902C34.7625 25.0661 34.578 25.4113 34.307 25.6823C34.0361 25.9532 33.6908 26.1378 33.315 26.2125C32.9392 26.2873 32.5496 26.2489 32.1956 26.1023C31.8416 25.9556 31.539 25.7073 31.3261 25.3887C31.1132 25.0701 30.9995 24.6955 30.9995 24.3123C31.0001 23.7986 31.2044 23.3061 31.5677 22.9429C31.9309 22.5797 32.4233 22.3754 32.937 22.3748Z" fill="#CB8734"/>
<path d="M29.0621 33.0308C29.0621 32.2644 28.8348 31.5153 28.409 30.878C27.9833 30.2408 27.3781 29.7441 26.67 29.4508C25.962 29.1576 25.1828 29.0808 24.4312 29.2303C23.6795 29.3799 22.9891 29.7489 22.4471 30.2908C21.9052 30.8328 21.5362 31.5232 21.3867 32.2749C21.2371 33.0265 21.3139 33.8057 21.6072 34.5137C21.9004 35.2218 22.3971 35.8269 23.0343 36.2527C23.6716 36.6785 24.4207 36.9058 25.1871 36.9058C26.2145 36.9046 27.1994 36.496 27.9259 35.7696C28.6523 35.0431 29.0609 34.0582 29.0621 33.0308ZM23.2497 33.0308C23.2497 32.6476 23.3633 32.273 23.5762 31.9544C23.7891 31.6358 24.0917 31.3875 24.4457 31.2408C24.7997 31.0942 25.1893 31.0558 25.5651 31.1306C25.941 31.2053 26.2862 31.3899 26.5571 31.6608C26.8281 31.9318 27.0126 32.277 27.0874 32.6528C27.1621 33.0287 27.1238 33.4182 26.9771 33.7723C26.8305 34.1263 26.5822 34.4289 26.2635 34.6418C25.9449 34.8547 25.5703 34.9683 25.1871 34.9683C24.6735 34.9677 24.181 34.7634 23.8178 34.4002C23.4546 34.037 23.2502 33.5445 23.2497 33.0308Z" fill="#CB8734"/>
<path d="M27.1246 47.5619C27.891 47.5619 28.6402 47.3346 29.2774 46.9089C29.9146 46.4831 30.4113 45.8779 30.7046 45.1698C30.9979 44.4618 31.0746 43.6827 30.9251 42.931C30.7756 42.1793 30.4065 41.4889 29.8646 40.947C29.3227 40.405 28.6322 40.036 27.8806 39.8865C27.1289 39.737 26.3498 39.8137 25.6417 40.107C24.9337 40.4003 24.3285 40.8969 23.9027 41.5342C23.4769 42.1714 23.2497 42.9206 23.2497 43.687C23.2508 44.7143 23.6594 45.6992 24.3859 46.4257C25.1123 47.1521 26.0973 47.5607 27.1246 47.5619ZM27.1246 41.7495C27.5078 41.7495 27.8824 41.8631 28.201 42.076C28.5196 42.2889 28.768 42.5915 28.9146 42.9455C29.0612 43.2995 29.0996 43.6891 29.0249 44.0649C28.9501 44.4408 28.7656 44.786 28.4946 45.057C28.2236 45.3279 27.8784 45.5124 27.5026 45.5872C27.1268 45.662 26.7372 45.6236 26.3832 45.4769C26.0291 45.3303 25.7266 45.082 25.5137 44.7634C25.3008 44.4447 25.1871 44.0702 25.1871 43.687C25.1877 43.1733 25.392 42.6808 25.7552 42.3176C26.1185 41.9544 26.6109 41.7501 27.1246 41.7495Z" fill="#CB8734"/>
<path d="M34.8745 47.5619C34.1081 47.5619 33.3589 47.7892 32.7217 48.2149C32.0845 48.6407 31.5878 49.2459 31.2945 49.954C31.0013 50.662 30.9245 51.4411 31.074 52.1928C31.2235 52.9445 31.5926 53.6349 32.1345 54.1768C32.6764 54.7188 33.3669 55.0878 34.1186 55.2373C34.8702 55.3868 35.6493 55.3101 36.3574 55.0168C37.0655 54.7235 37.6706 54.2269 38.0964 53.5896C38.5222 52.9524 38.7495 52.2032 38.7495 51.4368C38.7483 50.4095 38.3397 49.4246 37.6132 48.6981C36.8868 47.9717 35.9019 47.563 34.8745 47.5619ZM34.8745 53.3743C34.4913 53.3743 34.1167 53.2607 33.7981 53.0478C33.4795 52.8349 33.2312 52.5323 33.0845 52.1783C32.9379 51.8242 32.8995 51.4347 32.9743 51.0589C33.049 50.683 33.2336 50.3378 33.5045 50.0668C33.7755 49.7959 34.1207 49.6113 34.4965 49.5366C34.8724 49.4618 35.2619 49.5002 35.616 49.6468C35.97 49.7935 36.2726 50.0418 36.4855 50.3604C36.6984 50.679 36.812 51.0536 36.812 51.4368C36.8114 51.9505 36.6071 52.443 36.2439 52.8062C35.8807 53.1694 35.3882 53.3737 34.8745 53.3743Z" fill="#CB8734"/>
<path d="M41.6556 53.3743C41.6556 54.1407 41.8829 54.8899 42.3087 55.5271C42.7345 56.1644 43.3397 56.661 44.0477 56.9543C44.7558 57.2476 45.5349 57.3243 46.2865 57.1748C47.0382 57.0253 47.7287 56.6563 48.2706 56.1143C48.8125 55.5724 49.1816 54.882 49.3311 54.1303C49.4806 53.3786 49.4039 52.5995 49.1106 51.8915C48.8173 51.1834 48.3206 50.5782 47.6834 50.1524C47.0462 49.7267 46.297 49.4994 45.5306 49.4994C44.5032 49.5005 43.5183 49.9092 42.7919 50.6356C42.0654 51.3621 41.6568 52.347 41.6556 53.3743ZM47.4681 53.3743C47.4681 53.7575 47.3544 54.1321 47.1415 54.4507C46.9286 54.7694 46.626 55.0177 46.272 55.1643C45.918 55.311 45.5284 55.3493 45.1526 55.2746C44.7768 55.1998 44.4315 55.0153 44.1606 54.7443C43.8896 54.4734 43.7051 54.1282 43.6303 53.7523C43.5556 53.3765 43.594 52.9869 43.7406 52.6329C43.8872 52.2789 44.1356 51.9763 44.4542 51.7634C44.7728 51.5505 45.1474 51.4369 45.5306 51.4369C46.0443 51.4374 46.5367 51.6418 46.8999 52.005C47.2632 52.3682 47.4675 52.8607 47.4681 53.3743Z" fill="#CB8734"/>
<path d="M33.9058 35.9371C33.9058 37.0866 34.2467 38.2104 34.8853 39.1663C35.524 40.1221 36.4318 40.8671 37.4939 41.307C38.5559 41.747 39.7246 41.8621 40.8521 41.6378C41.9796 41.4135 43.0153 40.8599 43.8282 40.0471C44.6411 39.2342 45.1946 38.1985 45.4189 37.071C45.6432 35.9435 45.5281 34.7748 45.0882 33.7127C44.6482 32.6507 43.9032 31.7429 42.9474 31.1042C41.9915 30.4655 40.8678 30.1246 39.7182 30.1246C38.1772 30.1264 36.6998 30.7393 35.6101 31.829C34.5204 32.9186 33.9075 34.396 33.9058 35.9371ZM39.7182 32.0621C40.4846 32.0621 41.2338 32.2894 41.871 32.7152C42.5082 33.1409 43.0049 33.7461 43.2982 34.4542C43.5914 35.1622 43.6682 35.9413 43.5187 36.693C43.3692 37.4447 43.0001 38.1351 42.4582 38.677C41.9163 39.219 41.2258 39.588 40.4741 39.7375C39.7225 39.8871 38.9434 39.8103 38.2353 39.517C37.5272 39.2237 36.9221 38.7271 36.4963 38.0899C36.0705 37.4526 35.8432 36.7034 35.8432 35.9371C35.8444 34.9097 36.253 33.9248 36.9795 33.1983C37.7059 32.4719 38.6908 32.0633 39.7182 32.0621Z" fill="#CB8734"/>
<path d="M16.3217 8.44089L19.1012 9.96095L20.6214 12.7404C20.7048 12.8929 20.8277 13.0201 20.9772 13.1088C21.1268 13.1974 21.2974 13.2442 21.4712 13.2442C21.6451 13.2442 21.8157 13.1974 21.9652 13.1088C22.1148 13.0201 22.2377 12.8929 22.3211 12.7404L23.8413 9.96095L26.6207 8.44089C26.7733 8.35747 26.9005 8.23454 26.9892 8.08499C27.0779 7.93545 27.1247 7.7648 27.1247 7.59094C27.1247 7.41709 27.0779 7.24643 26.9892 7.09689C26.9005 6.94734 26.7733 6.82441 26.6207 6.741L23.8413 5.22081L22.3211 2.44138C22.2377 2.28888 22.1148 2.16163 21.9652 2.07298C21.8157 1.98434 21.6451 1.93756 21.4712 1.93756C21.2974 1.93756 21.1268 1.98434 20.9772 2.07298C20.8277 2.16163 20.7048 2.28888 20.6214 2.44138L19.1012 5.22081L16.3217 6.74087C16.1692 6.82429 16.0419 6.94722 15.9533 7.09677C15.8646 7.24631 15.8178 7.41697 15.8178 7.59082C15.8178 7.76468 15.8646 7.93533 15.9533 8.08487C16.0419 8.23442 16.1692 8.35735 16.3217 8.44076V8.44089ZM20.2799 6.78459C20.4424 6.69569 20.5761 6.56205 20.6649 6.39952L21.4713 4.92522L22.2777 6.39952C22.3665 6.56205 22.5002 6.69569 22.6627 6.78459L24.137 7.59094L22.6627 8.39717C22.5002 8.48607 22.3665 8.61971 22.2777 8.78224L21.4712 10.2565L20.6648 8.78224C20.5759 8.61971 20.4423 8.48607 20.2798 8.39717L18.8056 7.59094L20.2799 6.78459Z" fill="#CB8734"/>
</svg>

<svg width="62" height="63" fill="none" xmlns="http://www.w3.org/2000/svg"><path opacity=".58" fill="#fff" d="M0 0h62v62H0z"/><path d="M39.676 62.093a24.501 24.501 0 0 0 17.75-7.525 2.71 2.71 0 0 0 .677-2.607 2.654 2.654 0 0 0-1.849-1.883 10.18 10.18 0 0 1-7.373-9.987c.11-5.512 4.664-9.966 10.17-9.966h.078l.1.001a2.713 2.713 0 0 0 2.358-1.279 2.667 2.667 0 0 0 .118-2.645 24.7 24.7 0 0 0-22.029-13.515 24.703 24.703 0 1 0 0 49.406zm-16.109-40.82a22.787 22.787 0 0 1 36.41 5.808.741.741 0 0 1-.033.739.775.775 0 0 1-.682.368l-.118-.001h-.091c-6.557 0-11.98 5.304-12.109 11.866a12.12 12.12 0 0 0 8.78 11.888.728.728 0 0 1 .508.521.789.789 0 0 1-.197.758 22.773 22.773 0 0 1-37.315-7.022 22.776 22.776 0 0 1 4.847-24.925zM2.906 16.216v5.096c0 .076.01.152.028.225C.904 32.892.273 40.28 1.827 53.395a124.77 124.77 0 0 0 1.178 7.81.968.968 0 0 0 .953.794h5.529a.968.968 0 0 0 .953-.794c.474-2.584.87-5.212 1.178-7.81 1.626-13.72.987-21.322-.962-32.168v-5.01a6.776 6.776 0 0 0 2.906-5.56c0-.136-.025-3.334-2.22-5.53-1.48-1.479-.742-3.832-.736-3.852A.969.969 0 0 0 9.58.006C4.644.556 2.293 3.439 1.191 5.76A12.615 12.615 0 0 0 0 10.656a6.777 6.777 0 0 0 2.906 5.56zm6.788 36.95a122.91 122.91 0 0 1-1.017 6.896h-3.91a122.721 122.721 0 0 1-1.016-6.895C2.244 40.452 2.833 33.214 4.769 22.28h4.107c1.814 10.28 2.379 17.71.818 30.886zM8.72 20.345H4.844v-3.19a6.762 6.762 0 0 0 3.875 0v3.19zM2.94 6.59c1.116-2.35 2.981-3.84 5.554-4.44-.09 1.221.093 2.964 1.476 4.346 1.607 1.607 1.653 4.1 1.654 4.161a4.85 4.85 0 0 1-4.44 4.824c-.923-1.034-1.343-2.005-1.244-2.89.142-1.283 1.35-2.08 1.362-2.088L6.264 8.868c-.08.051-1.987 1.277-2.246 3.484a4.67 4.67 0 0 0 .46 2.564 4.846 4.846 0 0 1-2.54-4.258A10.677 10.677 0 0 1 2.94 6.591z" fill="#CB8734"/><path d="M45.53 27.218a3.875 3.875 0 1 0 0-7.749 3.875 3.875 0 0 0 0 7.75zm0-5.812a1.937 1.937 0 1 1 0 3.875 1.937 1.937 0 0 1 0-3.875zM32.937 28.187a3.875 3.875 0 1 0 0-7.75 3.875 3.875 0 0 0 0 7.75zm0-5.812a1.937 1.937 0 1 1 0 3.874 1.937 1.937 0 0 1 0-3.874zM29.062 33.03a3.875 3.875 0 1 0-7.75.001 3.875 3.875 0 0 0 7.75 0zm-5.812 0a1.937 1.937 0 1 1 3.874 0 1.937 1.937 0 0 1-3.874 0zM27.125 47.562a3.875 3.875 0 1 0 0-7.751 3.875 3.875 0 0 0 0 7.75zm0-5.813a1.937 1.937 0 1 1 0 3.875 1.937 1.937 0 0 1 0-3.875zM34.874 47.562a3.875 3.875 0 1 0 0 7.75 3.875 3.875 0 0 0 0-7.75zm0 5.812a1.937 1.937 0 1 1 0-3.874 1.937 1.937 0 0 1 0 3.874zM41.656 53.374a3.875 3.875 0 1 0 7.75 0 3.875 3.875 0 0 0-7.75 0zm5.812 0a1.937 1.937 0 1 1-3.875 0 1.937 1.937 0 0 1 3.875 0zM33.906 35.937a5.813 5.813 0 1 0 5.812-5.812 5.82 5.82 0 0 0-5.812 5.812zm5.812-3.875a3.875 3.875 0 1 1 0 7.75 3.875 3.875 0 0 1 0-7.75zM16.322 8.44l2.78 1.521 1.52 2.78a.969.969 0 0 0 1.7 0l1.52-2.78 2.779-1.52a.969.969 0 0 0 0-1.7l-2.78-1.52-1.52-2.78a.968.968 0 0 0-1.7 0l-1.52 2.78-2.78 1.52a.968.968 0 0 0 0 1.7zm3.958-1.655a.968.968 0 0 0 .385-.385l.806-1.475.807 1.475a.968.968 0 0 0 .385.385l1.474.806-1.474.806a.968.968 0 0 0-.385.385l-.807 1.475-.806-1.475a.969.969 0 0 0-.385-.385l-1.474-.806 1.474-.806z" fill="#CB8734"/></svg>
